src/images/crypto-icon-svg/btg.svg

<svg xmlns="http://www.w3.org/2000/svg" width="32" height="32" viewBox="0 0 32 32">
  <g fill="none" fill-rule="evenodd">
    <circle cx="16" cy="16" r="16" fill="#EBA809" fill-rule="nonzero"/>
    <path fill="#FFF" d="M16,27 C9.92486775,27 5,22.0751322 5,16 C5,9.92486775 9.92486775,5 16,5 C22.0751322,5 27,9.92486775 27,16 C27,22.0751322 22.0751322,27 16,27 Z M15.0115224,6.74031501 C15.0136374,7.61530988 15.0143424,8.49030475 15.0136374,9.36529963 C15.450506,9.36529963 15.8874333,9.36600376 16.3244193,9.36741201 C16.3265344,8.46965037 16.3286494,7.57188873 16.3244193,6.67535931 C15.887492,6.68996994 15.4484497,6.71056565 15.0115224,6.74049104 L15.0115224,6.74031501 Z M18.1644844,9.4073712 C19.315935,9.56210306 20.5533964,9.73813476 21.4713139,10.5147866 C22.8723366,11.7716529 22.6916788,14.4112481 20.9755186,15.3218601 C22.002712,15.5610872 23.0200353,16.2451463 23.2734849,17.3235165 C23.6032513,18.7377551 23.3406366,20.4331164 22.2043436,21.4298078 C21.0784494,22.3552064 19.5533457,22.4768443 18.1607831,22.6092202 C18.1671281,23.4275915 18.1650131,24.2463149 18.1628981,25.0662706 C21.0932545,24.3507017 23.6222865,22.1707252 24.6977727,19.3506975 C25.7186211,16.748949 25.4771566,13.6875818 24.0361248,11.2912624 C22.7632369,9.13012129 20.5992218,7.54178731 18.1692432,6.93324574 C18.1628981,7.7577782 18.1628981,8.58248668 18.1650131,9.40701914 L18.1644844,9.4073712 Z M9.41818293,9.3718128 C10.6871933,9.43271977 11.9577899,9.42004549 13.2285628,9.41793311 C13.2285628,8.64585809 13.2306778,7.87360705 13.2243328,7.10153204 C11.8021599,7.56308714 10.5356171,8.38990801 9.41730167,9.3723409 L9.41818293,9.3718128 Z M7.93626083,11.361499 C6.44270613,13.9025165 6.27473851,17.1610392 7.52030743,19.8342565 C8.59544121,22.2304 10.7280836,24.0942235 13.2253903,24.8972801 C13.2296203,24.1271415 13.2275053,23.3550665 13.2275053,22.5851038 C11.9525024,22.5724295 10.6753845,22.6187259 9.40284906,22.5498975 C9.41747793,21.8406658 9.58350678,21.1462208 9.82585251,20.4788846 C10.4497826,20.4662103 11.1008554,20.57535 11.7038116,20.3718573 C12.0563145,20.0759481 11.9558512,19.587108 11.9747101,19.1822351 C11.9558512,16.8679465 11.9831701,14.5534817 11.96202,12.2391931 C11.9851089,11.8656538 11.7505182,11.4628933 11.3627651,11.3894881 C10.7220911,11.261513 10.0646732,11.3118581 9.41765418,11.3076333 C9.34204231,10.7872837 9.33358224,10.2605968 9.32529842,9.73391 C9.34351107,9.61362167 9.31965838,9.51081916 9.25374034,9.42550247 C8.88784235,10.1195954 8.30603635,10.6693424 7.93626083,11.361499 Z M15.0666891,11.4632454 L15.0666891,14.8750917 C16.2072121,14.8541439 17.4718162,14.9807107 18.4695756,14.3190075 C19.2979574,13.7777101 19.2450819,12.405367 18.3897337,11.9186394 C17.3919743,11.3269968 16.1735481,11.494755 15.0666891,11.4632454 Z M15.0666891,16.7109262 L15.0666891,20.4956076 C16.4740568,20.3822432 18.0536222,20.6188298 19.2790985,19.7696529 C20.1550681,19.1887483 20.0500223,17.7510975 19.1467336,17.2476468 C17.9200236,16.515355 16.4285839,16.7482449 15.0673941,16.7105741 L15.0666891,16.7109262 Z M15.0145186,22.635977 C15.0145186,23.5109719 15.0131086,24.3866122 15.0102886,25.262898 C15.4660748,25.2922952 15.9218611,25.3111306 16.3778235,25.3238049 C16.3820536,24.4278036 16.3799385,23.5319783 16.3799385,22.635977 L15.0145186,22.635977 Z"/>
  </g>
</svg>

<svg xmlns="http://www.w3.org/2000/svg" width="32" height="32"><g fill="none" fill-rule="evenodd"><circle cx="16" cy="16" r="16" fill="#EBA809" fill-rule="nonzero"/><path fill="#FFF" d="M16 27C9.925 27 5 22.075 5 16S9.925 5 16 5s11 4.925 11 11-4.925 11-11 11zm-.988-20.26c.002.875.002 1.75.002 2.625l1.31.002c.003-.897.005-1.795 0-2.692-.437.015-.876.036-1.312.065zm3.152 2.667c1.152.155 2.39.331 3.307 1.108 1.401 1.257 1.22 3.896-.495 4.807 1.027.24 2.044.923 2.297 2.002.33 1.414.068 3.11-1.069 4.106-1.126.925-2.65 1.047-4.043 1.18.006.818.004 1.636.002 2.456 2.93-.715 5.46-2.895 6.535-5.715 1.02-2.602.78-5.663-.662-8.06-1.273-2.16-3.437-3.75-5.867-4.358-.006.825-.006 1.65-.004 2.474zm-8.746-.035c1.27.06 2.54.048 3.81.046 0-.772.003-1.544-.004-2.316-1.422.461-2.688 1.288-3.807 2.27h.001zm-1.482 1.99c-1.493 2.54-1.661 5.799-.416 8.472 1.075 2.396 3.208 4.26 5.705 5.063.005-.77.003-1.542.003-2.312-1.275-.013-2.553.034-3.825-.035.014-.71.18-1.404.423-2.071.624-.013 1.275.096 1.878-.107.352-.296.252-.785.27-1.19-.018-2.314.01-4.629-.012-6.943.023-.373-.211-.776-.6-.85-.64-.127-1.297-.077-1.944-.081-.076-.52-.084-1.047-.093-1.574a.388.388 0 0 0-.071-.308c-.366.694-.948 1.243-1.318 1.935zm7.13.101v3.412c1.141-.02 2.406.106 3.404-.556.828-.541.775-1.914-.08-2.4-.998-.592-2.216-.424-3.323-.456zm0 5.248v3.785c1.408-.114 2.988.123 4.213-.726.876-.581.771-2.019-.132-2.522-1.227-.733-2.718-.5-4.08-.537zm-.051 5.925c0 .875-.002 1.75-.005 2.627.456.03.912.048 1.368.06.004-.895.002-1.791.002-2.687h-1.365z"/></g></svg>
